X:1
T:All the Way Along
T:All the Way Along
T:Lewis Edgar Jones
T:Ada J. Blenkhorn, 1904
T:Public Domain Courtesy of the Cyber Hymnal™
T:Public Domain Courtesy of the Cyber Hymnal™
C:Lewis Edgar Jones
Z:Public Domain
Z:Courtesy of the Cyber Hymnal™
%%score ( 1 2 ) ( 3 4 )
L:1/8
Q:1/4=107
M:4/4
K:G
V:1 treble 
V:2 treble 
V:3 bass 
V:4 bass 
V:1
 [B,D]>[B,D] [B,D]>[B,D] [^A,E]2 [B,D]2 | [B,G]>[B,G] [DG]>[DA] [DB]4 | %2
w: 1.~There is One who loves me,|One who is my friend.|
w: 2.~He doth still the temp- est,|bid its tu- mult cease,|
w: 3.~In my Lord and Sav- ior|I will joy- ful be,|
w: 4.~I will sing the prais- es|of His wond- rous love,|
 [GB]>[FA] [FA]>[^E^G] [FA]4 | [DA]>[DG] [DG]>[DF] [DG]4 | [B,D]>[B,D] [B,D]>[B,D] [^A,E]2 [B,D]2 | %5
w: All the way a- long,|all the way a- long.|He is ev- er near me,|
w: All the way a- long,|all the way a- long.|In the time of trou- ble|
w: All the way a- long,|all the way a- long.|Speak- ing words of com- fort|
w: All the way a- long,|all the way a- long.|I will sing more sweet- ly|
 [B,G]>[B,G] [DG]>[DA] [DB]4 | [GB]>[FA] [FA]>G [FA]2 [GB]>G | [FA]4 G4 || %8
w: read- y to de- fend.|All the way a- long it is|Je- sus.|
w: keeps in per- fect peace;|All the way a- long it is|Je- sus.|
w: sweet and dear to me,|All the way a- long it is|Je- sus.|
w: in my home a- bove,|All the way a- long it is|Je- sus.|
"^Refrain" [Gd]>[Gd] [Gd]>[GB] [Gd]2 G>[FA] | (B3 A) [DG]4 | [FA]>[FA] [FA]>G [FA]2 [GB]>[FA] | %11
w: |||
w: All the way a- long it is|Je- * sus;|All the way a- long, bless- èd|
w: |||
w: |||
 G4 [GB]4 | [Gd]>[Gd] [Gd]>[GB] [Gd]4 | [GB]>[GB] [GB]>[FA] G4 | %14
w: |||
w: Je- sus.|He’s my joy and song,|all the way a- long.|
w: |||
w: |||
 [EG]>[EG] [EG]>[CE] [B,D]2 [DG]>[GB] | [FA]4 G4 |] %16
w: ||
w: All the way a- long it is|Je- sus.|
w: ||
w: ||
V:2
 x8 | x8 | x8 | x8 | x8 | x8 | x7/2 G/ x3 G/ x/ | x4 G4 || x6 G3/2 x/ | G4 x4 | x7/2 G/ x4 | %11
 G4 x4 | x8 | x4 G4 | x8 | x4 G4 |] %16
V:3
 G,>G, G,>G, G,2 G,2 | G,>[D,G,] [B,,G,]>[D,F,] G,4 | [D,D]>[D,C] [D,C]>[D,B,] [D,C]4 | %3
 [G,C]>[G,B,] [G,B,]>[G,C] [G,B,]4 | G,>G, G,>G, G,2 G,2 | G,>[D,G,] [B,,G,]>[D,F,] G,4 | %6
 [D,D]>[D,C] [D,C]>[D,B,] [D,C]2 [D,D]>[D,B,] | [D,C]4 [G,B,]4 || %8
 [G,B,]>[G,B,] [G,B,]>[G,D] [G,B,]2 [D,D]>[D,D] | (D3 C) [G,B,]4 | %10
 [D,C]>[D,C] [D,C]>[D,B,] [D,C]2 [D,D]>[D,C] | [G,B,]4 [G,D]4 | %12
 [G,B,]>[G,B,] [G,B,]>[G,D] [G,B,]4 | [G,D]>[G,D] [G,D]>[D,C] [E,B,]4 | %14
 [C,C]>[C,C] [C,C]>[C,G,] [D,G,]2 [B,,D]>[G,,D] | [D,C]4 [G,,B,]4 |] %16
V:4
 G,>G, G,>G, G,2 G,2 | G,3/2 x G,4 x3/2 | x8 | x8 | G,>G, G,>G, G,2 G,2 | G,3/2 x G,4 x3/2 | x8 | %7
 x8 || x8 | G,4 x4 | x8 | x8 | x8 | x8 | x8 | x8 |] %16

